content/img/checkmark-light-gray.svg

<svg width="24" height="24" viewBox="0 0 24 24" fill="none" xmlns="http://www.w3.org/2000/svg">
<circle cx="12" cy="12" r="12" fill="#E9EDF3"/>
<path d="M7.92575 11.9833C7.54583 11.5825 6.91289 11.5655 6.51204 11.9454C6.1112 12.3253 6.09423 12.9583 6.47415 13.3591L7.92575 11.9833ZM9.97585 15.6L9.25006 16.2879C9.4389 16.4872 9.70134 16.6 9.97585 16.6C10.2504 16.6 10.5128 16.4872 10.7017 16.2879L9.97585 15.6ZM17.5258 9.08793C17.9057 8.68708 17.8887 8.05415 17.4879 7.67422C17.087 7.2943 16.4541 7.31127 16.0742 7.71212L17.5258 9.08793ZM6.47415 13.3591L9.25006 16.2879L10.7017 14.9121L7.92575 11.9833L6.47415 13.3591ZM10.7017 16.2879L17.5258 9.08793L16.0742 7.71212L9.25006 14.9121L10.7017 16.2879Z" fill="#92A1B3"/>
</svg>

<svg width="24" height="24" viewBox="0 0 24 24" fill="none" xmlns="http://www.w3.org/2000/svg"><circle cx="12" cy="12" r="12" fill="#E9EDF3"/><path d="M7.926 11.983a1 1 0 00-1.452 1.376l1.452-1.376zm2.05 3.617l-.726.688a1 1 0 001.452 0l-.726-.688zm7.55-6.512a1 1 0 00-1.452-1.376l1.452 1.376zM6.474 13.359l2.776 2.929 1.452-1.376-2.776-2.929-1.452 1.376zm4.228 2.929l6.824-7.2-1.452-1.376-6.824 7.2 1.452 1.376z" fill="#92A1B3"/></svg>
